packages/bzx-common/src/assets/images/providers/logo_short___metamask.svg

<svg width="32" height="32" viewBox="0 0 32 32" fill="none" xmlns="http://www.w3.org/2000/svg">
<path d="M30.4004 1L17.9004 10.4L20.4004 4.8L30.4004 1Z" fill="#E2761B"/>
<path d="M1.59961 1L13.9996 10.4L11.7996 4.8L1.59961 1Z" fill="#E4761B"/>
<path d="M25.3996 22.2002L22.5996 27.6002L29.6996 29.6002L31.5996 22.3002H25.3996V22.2002Z" fill="#E4761B"/>
<path d="M0.400391 22.2002L2.40039 29.3002L9.50039 27.3002L6.60039 22.2002H0.400391Z" fill="#E4761B"/>
<path d="M9 13.9001L7 16.9001L14.1 17.2001L13.8 9.6001L9 13.9001Z" fill="#E4761B"/>
<path d="M23.0004 13.9L18.1004 9.5L17.9004 17.2L25.0004 16.9L23.0004 13.9Z" fill="#E4761B"/>
<path d="M9.09961 27.9002L13.5996 25.6002L9.99961 22.7002L9.09961 27.9002Z" fill="#E4761B"/>
<path d="M18.3008 25.5002L22.8008 27.8002L22.0008 22.7002L18.3008 25.5002Z" fill="#E4761B"/>
<path d="M22.9004 27.9001L18.4004 25.6001L18.7004 28.5001V29.7001L22.9004 27.9001Z" fill="#D7C1B3"/>
<path d="M9.09961 27.9002L13.2996 29.8002V28.6002L13.5996 25.7002L9.09961 27.9002Z" fill="#D7C1B3"/>
<path d="M12.9004 21L10.4004 19.8L12.2004 18.5L12.9004 21Z" fill="#233447" stroke="#233447" stroke-linecap="round" stroke-linejoin="round"/>
<path d="M19.0996 21L19.7996 18.5L21.5996 19.8L19.0996 21Z" fill="#233447" stroke="#233447" stroke-linecap="round" stroke-linejoin="round"/>
<path d="M9.40039 27.6002L10.4004 22.2002H5.40039L9.40039 27.6002Z" fill="#CD6116"/>
<path d="M21.5996 22.2002L22.5996 27.6002L26.5996 22.2002H21.5996Z" fill="#CD6116"/>
<path d="M25.0004 16.8999L17.9004 17.1999L18.6004 20.7999L19.6004 18.5999L22.1004 19.6999L25.0004 16.8999Z" fill="#CD6116"/>
<path d="M9.9 19.7999L12.4 18.6999L13.4 20.8999L14.1 17.2999L7 16.8999L9.9 19.7999Z" fill="#CD6116"/>
<path d="M7 16.8999L10 22.6999L9.9 19.7999L7 16.8999Z" fill="#E4751F" stroke="#E4751F" stroke-linecap="round" stroke-linejoin="round"/>
<path d="M22.1 19.7999L22 22.6999L25 16.8999L22.1 19.7999Z" fill="#E4751F" stroke="#E4751F" stroke-linecap="round" stroke-linejoin="round"/>
<path d="M14.1004 17.2002L13.4004 20.8002L14.2004 25.1002L14.4004 19.5002L14.1004 17.2002Z" fill="#E4751F" stroke="#E4751F" stroke-linecap="round" stroke-linejoin="round"/>
<path d="M17.8996 17.2002L17.5996 19.5002L17.7996 25.1002L18.5996 20.8002L17.8996 17.2002Z" fill="#E4751F" stroke="#E4751F" stroke-linecap="round" stroke-linejoin="round"/>
<path d="M18.6004 20.8999L17.9004 25.5999L18.4004 26.0999L21.5004 22.9999L21.6004 19.8999L18.6004 20.8999Z" fill="#F6851B" stroke="#F6851B" stroke-linecap="round" stroke-linejoin="round"/>
<path d="M10.4004 19.7002L10.5004 22.8002L13.6004 25.9002L14.1004 25.4002L13.4004 20.7002L10.4004 19.7002Z" fill="#F6851B" stroke="#F6851B" stroke-linecap="round" stroke-linejoin="round"/>
<path d="M18.6996 29.5002V28.1002L18.3996 27.8002H13.4996L13.1996 28.1002V29.5002L9.09961 27.2002L10.4996 28.6002L13.3996 31.0002H18.3996L21.2996 28.6002L22.6996 27.2002L18.6996 29.5002Z" fill="#C0AD9E"/>
<path d="M18.7004 25.2002L18.0004 24.7002H14.0004L13.3004 25.2002L12.9004 28.5002L13.2004 28.2002H18.7004L19.1004 28.5002L18.7004 25.2002Z" fill="#161616"/>
<path d="M30.9008 10.9L32.0008 5.8L30.4008 1L18.3008 10L22.9008 13.9L29.5008 15.8L31.0008 14.1L30.4008 13.6L31.4008 12.7L30.6008 12.1L31.6008 11.3L30.9008 10.9Z" fill="#763D16"/>
<path d="M0 5.8L1.1 10.9L0.4 11.4L1.4 12.2L0.6 12.8L1.6 13.7L1 14.1L2.4 15.8L9 13.9L13.6 10L1.6 1L0 5.8Z" fill="#763D16"/>
<path d="M29.2996 15.4L22.5996 13.5L24.5996 16.5L21.5996 22.2H31.4996L29.2996 15.4Z" fill="#F6851B"/>
<path d="M9.4 13.5L2.7 15.4L0.5 22.2H10.4L7.4 16.5L9.4 13.5Z" fill="#F6851B"/>
<path d="M17.9992 16.9998L18.3992 9.8998L20.3992 4.7998H11.6992L13.5992 9.8998L13.9992 16.9998L14.1992 19.1998V24.6998H17.7992V19.1998L17.9992 16.9998Z" fill="#F6851B"/>
</svg>

<svg xmlns="http://www.w3.org/2000/svg" height="32" width="32" x="0px" y="0px" viewBox="0 0 32 32">
  <path fill="#E2761B" d="M30.4 1l-12.5 9.4 2.5-5.6 10-3.8z"/>
  <path fill="#E4761B" d="M1.6 1L14 10.4l-2.2-5.6L1.6 1z"/>
  <path fill="#E4761B" d="M25.4 22.2l-2.8 5.4 7.1 2 1.9-7.3h-6.2z"/>
  <path fill="#E4761B" d="M.4 22.2l2 7.1 7.1-2-2.9-5.1H.4z"/>
  <path fill="#E4761B" d="M9 13.9l-2 3 7.1.3-.3-7.6L9 13.9z"/>
  <path fill="#E4761B" d="M23 13.9l-4.9-4.4-.2 7.7 7.1-.3-2-3z"/>
  <path fill="#E4761B" d="M9.1 27.9l4.5-2.3-3.6-2.9-.9 5.2z"/>
  <path fill="#E4761B" d="M18.3 25.5l4.5 2.3-.8-5.1-3.7 2.8z"/>
  <path fill="#D7C1B3" d="M22.9 27.9l-4.5-2.3.3 2.9v1.2l4.2-1.8z"/>
  <path fill="#D7C1B3" d="M9.1 27.9l4.2 1.9v-1.2l.3-2.9-4.5 2.2z"/>
  <path fill="#233447" stroke="#233447" stroke-linecap="round" stroke-linejoin="round" d="M12.9 21l-2.5-1.2 1.8-1.3.7 2.5z"/>
  <path fill="#233447" stroke="#233447" stroke-linecap="round" stroke-linejoin="round" d="M19.1 21l.7-2.5 1.8 1.3-2.5 1.2z"/>
  <path fill="#CD6116" d="M9.4 27.6l1-5.4h-5l4 5.4z"/>
  <path fill="#CD6116" d="M21.6 22.2l1 5.4 4-5.4h-5z"/>
  <path fill="#CD6116" d="M25 16.9l-7.1.3.7 3.6 1-2.2 2.5 1.1 2.9-2.8z"/>
  <path fill="#CD6116" d="M9.9 19.8l2.5-1.1 1 2.2.7-3.6-7.1-.4 2.9 2.9z"/>
  <path fill="#E4751F" stroke="#E4751F" stroke-linecap="round" stroke-linejoin="round" d="M7 16.9l3 5.8-.1-2.9L7 16.9z"/>
  <path fill="#E4751F" stroke="#E4751F" stroke-linecap="round" stroke-linejoin="round" d="M22.1 19.8l-.1 2.9 3-5.8-2.9 2.9z"/>
  <path fill="#E4751F" stroke="#E4751F" stroke-linecap="round" stroke-linejoin="round" d="M14.1 17.2l-.7 3.6.8 4.3.2-5.6-.3-2.3z"/>
  <path fill="#E4751F" stroke="#E4751F" stroke-linecap="round" stroke-linejoin="round" d="M17.9 17.2l-.3 2.3.2 5.6.8-4.3-.7-3.6z"/>
  <path fill="#F6851B" stroke="#F6851B" stroke-linecap="round" stroke-linejoin="round" d="M18.6 20.9l-.7 4.7.5.5 3.1-3.1.1-3.1-3 1z"/>
  <path fill="#F6851B" stroke="#F6851B" stroke-linecap="round" stroke-linejoin="round" d="M10.4 19.7l.1 3.1 3.1 3.1.5-.5-.7-4.7-3-1z"/>
  <path fill="#C0AD9E" d="M18.7 29.5v-1.4l-.3-.3h-4.9l-.3.3v1.4l-4.1-2.3 1.4 1.4 2.9 2.4h5l2.9-2.4 1.4-1.4-4 2.3z"/>
  <path fill="#161616" d="M18.7 25.2l-.7-.5h-4l-.7.5-.4 3.3.3-.3h5.5l.4.3-.4-3.3z"/>
  <path fill="#763D16" d="M30.9 10.9L32 5.8 30.4 1l-12.1 9 4.6 3.9 6.6 1.9 1.5-1.7-.6-.5 1-.9-.8-.6 1-.8-.7-.4z"/>
  <path fill="#763D16" d="M0 5.8l1.1 5.1-.7.5 1 .8-.8.6 1 .9-.6.4 1.4 1.7L9 13.9l4.6-3.9-12-9L0 5.8z"/>
  <path fill="#F6851B" d="M29.3 15.4l-6.7-1.9 2 3-3 5.7h9.9l-2.2-6.8z"/>
  <path fill="#F6851B" d="M9.4 13.5l-6.7 1.9-2.2 6.8h9.9l-3-5.7 2-3z"/>
  <path fill="#F6851B" d="M18 17l.4-7.1 2-5.1h-8.7l1.9 5.1.4 7.1.2 2.2v5.5h3.6v-5.5L18 17z"/>
</svg>
